webroot/assets/sticky-card/sticky-card-spacing.svg

<svg xmlns="http://www.w3.org/2000/svg" width="287" height="361"><defs><filter id="a" width="274" height="361" x="0" y="0" filterUnits="userSpaceOnUse"><feOffset dy="3"/><feGaussianBlur result="b" stdDeviation="2"/><feFlood flood-opacity=".102"/><feComposite in2="b" operator="in"/><feComposite in="SourceGraphic"/></filter></defs><g filter="url(#a)"><g fill="#fff" stroke="#d2d2d2"><path stroke="none" d="M9 3h259v349H9a3 3 0 01-3-3V6a3 3 0 013-3z"/><path fill="none" d="M9 3.5h258a.5.5 0 01.5.5v347a.5.5 0 01-.5.5H9a2.5 2.5 0 01-2.5-2.5V6A2.5 2.5 0 019 3.5z"/></g></g><g fill="#06c"><path d="M176 310l-1.5 1.5 4.5 4.5h-10v2h10l-4.5 4.5 1.5 1.5 7-7z"/><text font-family="RedHatDisplay-Bold, Red Hat Display" font-size="18" font-weight="700" transform="translate(30 323)"><tspan x="0" y="0">Get the e-book</tspan></text></g><text fill="#151515" font-family="RedHatText-Regular, Red Hat Text" font-size="16" transform="translate(30 196)"><tspan x="0" y="16">This book shows you how </tspan><tspan x="0" y="40">Operators work and how to </tspan><tspan x="0" y="64">build them with the Operator </tspan><tspan x="0" y="88">Framework and SDK.</tspan></text><text fill="#151515" font-family="RedHatDisplay-Medium, Red Hat Display" font-size="20" font-weight="500" transform="translate(30 102)"><tspan x="0" y="20">Automating the </tspan><tspan x="0" y="46">container orchestration </tspan><tspan x="0" y="72">platform</tspan></text><text fill="#151515" font-family="RedHatText-Regular, Red Hat Text" font-size="16" transform="translate(30 81)"><tspan x="0" y="0">E-BOOK</tspan></text><path fill="none" d="M30 27h14v14H30z"/><path fill="#6a6e73" d="M38.9 34l2.84-2.84a.9.9 0 000-1.27l-.63-.63a.9.9 0 00-1.26 0L37 32.1l-2.84-2.84a.9.9 0 00-1.27 0l-.63.63a.9.9 0 000 1.27L35.1 34l-2.84 2.84a.9.9 0 000 1.27l.63.63a.9.9 0 001.27 0L37 35.9l2.84 2.84a.9.9 0 001.27 0l.63-.63a.9.9 0 000-1.26z"/><path fill="#fff" d="M267 3h20v349h-20z"/><path fill="#1b8793" d="M244 3h24v349h-24z"/><path fill="#1b8793" d="M6 328h262v24H6z"/><g fill="none" stroke="#f0f" opacity=".25"><path stroke="none" d="M30 305h153v23H30z"/><path d="M30.5 305.5h152v22h-152z"/></g><path fill="#51a549" d="M30 289h16v16H30z"/><g fill="none" stroke="#f0f" opacity=".25"><path stroke="none" d="M30 196h214v93H30z"/><path d="M30.5 196.5h213v92h-213z"/></g><path fill="#51a549" d="M30 180h16v16H30z"/><g fill="none" stroke="#f0f" opacity=".25"><path stroke="none" d="M30 102h214v78H30z"/><path d="M30.5 102.5h213v77h-213z"/></g><path fill="#51a549" d="M30 86h16v16H30z"/><g fill="none" stroke="#f0f" opacity=".25"><path stroke="none" d="M30 65h63v21H30z"/><path d="M30.5 65.5h62v20h-62z"/></g><path fill="#1b8793" d="M6 41h262v24H6z"/><g fill="none" stroke="#f0f" opacity=".25"><path stroke="none" d="M30 27h14v14H30z"/><path d="M30.5 27.5h13v13h-13z"/></g><path fill="#1b8793" d="M6 3h262v24H6z"/><g><path fill="#1b8793" d="M6 3h24v349H6z"/></g></svg>

<svg xmlns="http://www.w3.org/2000/svg" width="281" height="349" viewBox="0 0 281 349"><defs><style>.a{fill:#fff;}.b,.g,.k{fill:none;}.b{stroke:#d2d2d2;}.c,.d{fill:#06c;}.d{font-size:18px;font-family:RedHatDisplay-Bold, Red Hat Display;font-weight:700;}.e,.f{fill:#151515;}.e{font-size:16px;font-family:RedHatText-Regular, Red Hat Text;}.f{font-size:20px;font-family:RedHatDisplay-Medium, Red Hat Display;font-weight:500;}.h{fill:#6a6e73;}.i{fill:#1b8793;}.j{opacity:0.25;}.k{stroke:#f0f;}.l{fill:#51a549;}</style></defs><g transform="translate(-6 -3)"><path class="a" d="M9,3H268V352H9"/><path class="b" d="M9,3.5H267"/><path class="c" d="M176,310l-1.5,1.5L179,316H169v2h10l-4.5,4.5L176,324l7-7Z"/><text class="d" transform="translate(30 323)"><tspan x="0" y="0">Get the e-book</tspan></text><text class="e" transform="translate(30 212)"><tspan x="0" y="0">This book shows you how </tspan><tspan x="0" y="24">Operators work and how to </tspan><tspan x="0" y="48">build them with the Operator </tspan><tspan x="0" y="72">Framework and SDK.</tspan></text><text class="f" transform="translate(30 122)"><tspan x="0" y="0">Automating the </tspan><tspan x="0" y="26">container orchestration </tspan><tspan x="0" y="52">platform</tspan></text><text class="e" transform="translate(30 81)"><tspan x="0" y="0">E-BOOK</tspan></text><path class="g" d="M30,27H44V41H30Z"/><path class="h" d="M38.9,34l2.84-2.84"/><path class="a" d="M267,3h20V352H267Z"/><path class="i" d="M244,3h24V352H244Z"/><path class="i" d="M6,328H268v24H6Z"/><g class="j"><path class="g" d="M30,305H183v23H30Z"/><path class="k" d="M30.5,305.5h152v22H30.5Z"/></g><path class="l" d="M30,289H46v16H30Z"/><g class="j"><path class="g" d="M30,196H244v93H30Z"/><path class="k" d="M30.5,196.5h213v92H30.5Z"/></g><path class="l" d="M30,180H46v16H30Z"/><g class="j"><path class="g" d="M30,102H244v78H30Z"/><path class="k" d="M30.5,102.5h213v77H30.5Z"/></g><path class="l" d="M30,86H46v16H30Z"/><g class="j"><path class="g" d="M30,65H93V86H30Z"/><path class="k" d="M30.5,65.5h62v20h-62Z"/></g><path class="i" d="M6,41H268V65H6Z"/><g class="j"><path class="g" d="M30,27H44V41H30Z"/><path class="k" d="M30.5,27.5h13v13h-13Z"/></g><path class="i" d="M6,3H268V27H6Z"/><path class="i" d="M6,3H30V352H6Z"/></g></svg>
